X:143
T:Duchess of Atholl’s Strathspey,The. RH.143
R:Strathspey
S:Rev.R.Harrison’s MS,c1815,Cumbria
O:England
A:Temple Sowerby,Cumbria
Z:vmp.Simon Wilson. Review PJH, 2008.
M:C
L:1/16
Q:1/2=60
K:D
d|:A3df3d e3dB4|A3df3d a3df4|\
g3b f3d’ e3dB4|A3df3de4d4:|!
|:a3fd’3f gfedB4|a3fd’3f a>fa>bd’4|\
a3gd’3f gfedB4|A3df3de4d4:|!
|:.D2.d2.f2.d2 .B2.e2.c2.A2|D2d2f2d2 a2d2f2d2|\
g2bg f2d’f .B2.e2.c2.A2|D3df2d2 e4d4:|!
|:(defg) af3 d’e3cA3|defg af3 d’f3af3|\
g2bg f2d’f B2e2c2A2|D3df3d e4d4:|

